public/build/img/sistema/email.svg

<svg width="17" height="13" viewBox="0 0 17 13" fill="none" xmlns="http://www.w3.org/2000/svg">
<path d="M1.59375 0.875C0.713867 0.875 0 1.50488 0 2.28125C0 2.72363 0.235742 3.13965 0.6375 3.40625L7.8625 8.1875C8.24102 8.43652 8.75898 8.43652 9.1375 8.1875L16.3625 3.40625C16.7643 3.13965 17 2.72363 17 2.28125C17 1.50488 16.2861 0.875 15.4062 0.875H1.59375ZM0 4.15625V10.25C0 11.2842 0.95293 12.125 2.125 12.125H14.875C16.0471 12.125 17 11.2842 17 10.25V4.15625L9.775 8.9375C9.01797 9.43848 7.98203 9.43848 7.225 8.9375L0 4.15625Z" fill="#0538A5"/>
</svg>

<svg width="17" height="13" fill="none" xmlns="http://www.w3.org/2000/svg"><path d="M1.594.875C.714.875 0 1.505 0 2.281c0 .443.236.859.637 1.125l7.225 4.781c.379.25.897.25 1.275 0l7.226-4.78c.401-.267.637-.683.637-1.126 0-.776-.714-1.406-1.594-1.406H1.594ZM0 4.156v6.094c0 1.034.953 1.875 2.125 1.875h12.75c1.172 0 2.125-.84 2.125-1.875V4.156L9.775 8.938a2.351 2.351 0 0 1-2.55 0L0 4.155Z" fill="#0538A5"/></svg>
